packages/sources/assets/src/assets/flag-gi.svg

<svg width="28" height="20" viewBox="0 0 28 20" fill="none" xmlns="http://www.w3.org/2000/svg">
<rect x="0.25" y="0.25" width="27.5" height="19.5" rx="1.75" fill="white" stroke="#F5F5F5" stroke-width="0.5"/>
<mask id="mask0_503_4811" style="mask-type:alpha" maskUnits="userSpaceOnUse" x="0" y="0" width="28" height="20">
<rect x="0.25" y="0.25" width="27.5" height="19.5" rx="1.75" fill="white" stroke="white" stroke-width="0.5"/>
</mask>
<g mask="url(#mask0_503_4811)">
<path fill-rule="evenodd" clip-rule="evenodd" d="M0 20H28V13.3333H0V20Z" fill="#E34F4F"/>
<path fill-rule="evenodd" clip-rule="evenodd" d="M9.3335 13.3333H17.3335V8H9.3335V13.3333Z" fill="#E34F4F"/>
<path fill-rule="evenodd" clip-rule="evenodd" d="M10.6665 13.3333H11.9998V12H10.6665V13.3333Z" fill="#181A1A"/>
<path fill-rule="evenodd" clip-rule="evenodd" d="M14.6665 13.3333H15.9998V12H14.6665V13.3333Z" fill="#181A1A"/>
<path fill-rule="evenodd" clip-rule="evenodd" d="M9.3335 8.00002H10.6668V6.66669H9.3335V8.00002Z" fill="#181A1A"/>
<path fill-rule="evenodd" clip-rule="evenodd" d="M13.3335 8.00002H14.6668V6.66669H13.3335V8.00002Z" fill="#181A1A"/>
<path fill-rule="evenodd" clip-rule="evenodd" d="M12 7.99999H13.3333V6.66666H12V7.99999Z" fill="#181A1A"/>
<path fill-rule="evenodd" clip-rule="evenodd" d="M16 7.99999H17.3333V6.66666H16V7.99999Z" fill="#181A1A"/>
<path fill-rule="evenodd" clip-rule="evenodd" d="M9.3335 6.66665H10.6668V5.33331H9.3335V6.66665Z" fill="#E34F4F"/>
<path fill-rule="evenodd" clip-rule="evenodd" d="M13.3335 6.66665H14.6668V5.33331H13.3335V6.66665Z" fill="#E34F4F"/>
<path fill-rule="evenodd" clip-rule="evenodd" d="M12 6.66668H13.3333V5.33334H12V6.66668Z" fill="#E34F4F"/>
<path fill-rule="evenodd" clip-rule="evenodd" d="M16 6.66668H17.3333V5.33334H16V6.66668Z" fill="#E34F4F"/>
</g>
</svg>

<svg width="28" height="20" fill="none" xmlns="http://www.w3.org/2000/svg"><rect x=".25" y=".25" width="27.5" height="19.5" rx="1.75" fill="#fff" stroke="#F5F5F5" stroke-width=".5"/><mask id="a" style="mask-type:alpha" maskUnits="userSpaceOnUse" x="0" y="0" width="28" height="20"><rect x=".25" y=".25" width="27.5" height="19.5" rx="1.75" fill="#fff" stroke="#fff" stroke-width=".5"/></mask><g mask="url(#a)" fill-rule="evenodd" clip-rule="evenodd"><path d="M0 20h28v-6.667H0V20Zm9.334-6.667h8V8h-8v5.333Z" fill="#E34F4F"/><path d="M10.666 13.333H12V12h-1.334v1.333Zm4 0H16V12h-1.334v1.333ZM9.334 8h1.333V6.667H9.334V8Zm4 0h1.333V6.667h-1.333V8ZM12 8h1.333V6.667H12V8Zm4 0h1.333V6.667H16V8Z" fill="#181A1A"/><path d="M9.334 6.667h1.333V5.333H9.334v1.334Zm4 0h1.333V5.333h-1.333v1.334Zm-1.334 0h1.333V5.333H12v1.334Zm4 0h1.333V5.333H16v1.334Z" fill="#E34F4F"/></g></svg>
